PortableApps/LibreOfficePortable/App/libreoffice/help/media/icon-themes/cmd/sc_insertcolumnsbefore.svg

<svg viewBox="0 0 16 16" xmlns="http://www.w3.org/2000/svg"><path d="m1 5v9h5v-.183594c-.4631779-.463118-.9754397-.974684-1.3320312-1.332031l-.0039063-.003906-.0019531-.001953c-.4021869-.409904-.6691592-.961894-.6582032-1.541016.0109564-.579122.3039085-1.1161941.7148438-1.4824219.3522793-.3553849.8469056-.8468373 1.28125-1.28125v-3.1738281zm6 0v2.1757812c.5575781-.5561574 1.0762255-1.077518 1.5742188-1.5742187.3627228-.370366.8529042-.5871185 1.3730468-.6015625zm2.9492188 0c.8722512-.023861 1.5865042.4935839 1.8945312 1.21875.308165.7254907.181841 1.601247-.443359 2.2109375l-.570313.5683594 4.142578.0039062c.009363-.0001311.018009.0019673.027344.0019531v-4.0039062zm.8847652 7.994141.556641.55664c.141334.135432.252189.288411.347656.449219h3.261719v-1.003906c-.009335-.000015-.017981.002084-.027344.001953z" fill="#fff"/><path d="m7 1v4h2.9472656.0019532.0507812v.00586c.371771-.0008158.708035.1015717 1 .2714844v-.2773444h4.001953l-.001953 4.0039062c.558432-.0039062.814765.1264192 1 .2617188v-4.265625-4zm9 11.730469c-.299405.171518-.636281.265886-.998047.265625v1.005859h-2.001953v.980469c0 .006-.0019.01157-.002.01758h2.502c.276301.000384.500384-.223699.5-.5z" fill="#808080"/><g fill="#4d82b8"><path d="m0 1v4 9.5c-.000384.276301.223699.500384.5.5h5.5v-.998047h-5.00195312v-9.001953h4.00195312v4h-4v1h3.2851562c.1185444-.2032911.261884-.3918932.4335938-.5449219.3522793-.3553849.8469056-.8468373 1.28125-1.28125v-3.1738281-4zm5 11.816406v1.183594h1v-.183594c-.3300886-.330281-.7132977-.712799-1-1z"/><path d="m9.9756952 6.0003649c.4311728-.011795.8005528.2636921.9474018.6094086.146849.3457164.08821.8022937-.220735 1.1035764l-2.2913448 2.2833292 6.5751648.00586c.294233-.00412.580072.12096.757921.318376.177849.197417.255896.44202.255896.679725s-.07805.482309-.255896.679726c-.177849.197416-.463688.322496-.757921.318376l-6.5712578-.0059 2.2835318 2.279422c.213432.204519.330105.497094.316451.763714-.01365.26662-.13405.495796-.302777.664099-.168728.168303-.39593.285275-.662206.298845-.2662748.01357-.5587178-.101552-.7637808-.31447l.0059.0078c-1.354348-1.349362-2.8685859-2.86407-3.916571-3.914275-.5140368-.5239-.4803366-1.141229.0078-1.576259 1.0559877-1.0658713 2.6693444-2.6682197 3.904861-3.900557.181347-.1851682.428604-.2936055.687562-.3007961z"/></g></svg>

<svg viewBox="0 0 16 16" xmlns="http://www.w3.org/2000/svg">
  <path
     style="fill:#ffffff"
     d="M 1 5 L 1 14 L 6 14 L 6 13.816406 C 5.5368221 13.353288 5.0245603 12.841722 4.6679688 12.484375 L 4.6640625 12.480469 L 4.6621094 12.478516 C 4.2599225 12.068612 3.9929502 11.516622 4.0039062 10.9375 C 4.0148626 10.358378 4.3078147 9.8213059 4.71875 9.4550781 C 5.0710293 9.0996932 5.5656556 8.6082408 6 8.1738281 L 6 5 L 1 5 z M 7 5 L 7 7.1757812 C 7.5575781 6.6196238 8.0762255 6.0982632 8.5742188 5.6015625 C 8.9369416 5.2311965 9.427123 5.014444 9.9472656 5 L 7 5 z M 9.9492188 5 C 10.82147 4.976139 11.535723 5.4935839 11.84375 6.21875 C 12.151915 6.9442407 12.025591 7.819997 11.400391 8.4296875 L 10.830078 8.9980469 L 14.972656 9.0019531 C 14.982019 9.001822 14.990665 9.0039204 15 9.0039062 L 15 5 L 9.9492188 5 z M 10.833984 12.994141 L 11.390625 13.550781 C 11.531959 13.686213 11.642814 13.839192 11.738281 14 L 15 14 L 15 12.996094 C 14.990665 12.996079 14.982019 12.998178 14.972656 12.998047 L 10.833984 12.994141 z "
     />
  <path
     style="fill:#808080"
     d="M 7,1 V 5 H 9.9472656 9.9492188 10 v 0.00586 c 0.371771,-8.158e-4 0.708035,0.1015717 1,0.2714844 V 5 h 4.001953 L 15,9.0039062 C 15.558432,9 15.814765,9.1303254 16,9.265625 V 5 1 Z m 9,11.730469 c -0.299405,0.171518 -0.636281,0.265886 -0.998047,0.265625 v 1.005859 H 13 v 0.980469 c 0,0.006 -0.0019,0.01157 -0.002,0.01758 H 15.5 c 0.276301,3.84e-4 0.500384,-0.223699 0.5,-0.5 z"
     />
  <path
     style="fill:#4d82b8"
     d="M 0 1 L 0 5 L 0 14.5 C -0.000384 14.776301 0.223699 15.000384 0.5 15 L 6 15 L 6 14.001953 L 0.99804688 14.001953 L 0.99804688 5 L 5 5 L 5 9 L 1 9 L 1 10 L 4.2851562 10 C 4.4037006 9.7967089 4.5470402 9.6081068 4.71875 9.4550781 C 5.0710293 9.0996932 5.5656556 8.6082408 6 8.1738281 L 6 5 L 6 1 L 0 1 z M 5 12.816406 L 5 14 L 6 14 L 6 13.816406 C 5.6699114 13.486125 5.2867023 13.103607 5 12.816406 z "
     />
  <path
     style="fill:#4d82b8"
     d="m 9.9756952,6.0003649 c 0.4311728,-0.011795 0.8005528,0.2636921 0.9474018,0.6094086 0.146849,0.3457164 0.08821,0.8022937 -0.220735,1.1035764 l -2.2913448,2.2833292 6.5751648,0.00586 c 0.294233,-0.00412 0.580072,0.12096 0.757921,0.318376 0.177849,0.197417 0.255896,0.44202 0.255896,0.679725 0,0.237705 -0.07805,0.482309 -0.255896,0.679726 -0.177849,0.197416 -0.463688,0.322496 -0.757921,0.318376 l -6.5712578,-0.0059 2.2835318,2.279422 c 0.213432,0.204519 0.330105,0.497094 0.316451,0.763714 -0.01365,0.26662 -0.13405,0.495796 -0.302777,0.664099 -0.168728,0.168303 -0.39593,0.285275 -0.662206,0.298845 -0.2662748,0.01357 -0.5587178,-0.101552 -0.7637808,-0.31447 l 0.0059,0.0078 c -1.354348,-1.349362 -2.8685859,-2.86407 -3.916571,-3.914275 -0.5140368,-0.5239 -0.4803366,-1.141229 0.0078,-1.576259 1.0559877,-1.0658713 2.6693444,-2.6682197 3.904861,-3.900557 0.181347,-0.1851682 0.428604,-0.2936055 0.687562,-0.3007961 z"
     />
</svg>
